X:1    
T:Tam Lin
B:Palmer, Roy, 1998, A Book of British Ballads, Llanerch
S:Betsy Johnston, 1974
Z:Ailie Munro and Hamish Henderson
F:http://www.folkinfo.org/songs
M:4/4     %Meter
L:1/8     %
K:C
A,3/2B,/ |C2 C4 A,3/2B,/ |C2 C4 DG |A3/2^F/ G4 A3/2G/ |E6
w:La-dy Mar-gret, La-dy Mar-gret been *sew--ing at a seam,
E3/2G/ |(A2 (3:2A)(G^F) G3 G |C2 G2 G2
w:She_ look-*ed_ east, she look-ed west 
 C3/2B,/ |A,3 B, CC (E3/2D/) |C2 B,B, A,2
w:And she saw those mer-ry green_  woods grow-ing green, 
 (A^F) |G3 C CC (D3/2C/) |C6 z2 |]
w:She_ saw those mer-ry green_ woods. 
